X:1
T:Title
%%score ( 1 2 ) { 3 | 4 }
L:1/8
Q:1/4=128
M:3/4
K:G
V:1 treble nm="Grand Piano, Staff 1"
V:2 treble 
V:3 bass nm="Choir Pad, Staff 2"
V:4 bass 
V:1
 [B,E]4 [EG]2 | F4 [E^G]2 | [EA]4 [EG]2 | F4- [^DF]2 | [EG]4 [EA]2 | B2- [DB]2 [Gc]2 | %6
w: By~Vollst�ndige~Psalmen~(Bremen,~Germany:~1639) *||||||
 [GB]4 [FA]2 | G6 | [FB]4 [EG]2 | [CF]4 [A,E]2 | [B,E]4 [B,^D]2 | [B,E]6- | [B,E]2 z2 z2 |] %13
w: |||||||
V:2
 x6 | x6 | x6 | E4 z2 | x6 | E2 z2 z2 | x6 | x6 | x6 | x6 | x6 | x6 | x6 |] %13
V:3
 G,4 B,2 | B,4 B,2 | A,4 C2 | F,6 | E,2 B,2 A,2 | G,2 B,2[K:treble] E2 | D4 D2 | B,6 | %8
 B,4[K:bass] B,2 | A,4 E,2 | F,3 G, A,2 | G,6- | G,2 z2 z2 |] %13
V:4
 E,4 E,2 | ^D,4 =D,2 | C,4 A,,2 | B,,6 | z2 z2 F,2 | z2 z2 A,,2 | B,,3 C, D,2 | [G,,G,]6 | %8
 [^D,,^D,]4 [E,,E,]2 | A,,3 B,, C,2 | B,,4 B,,2 | [E,,E,]6- | [E,,E,]2 z2 z2 |] %13

